X:12
M:6/8
L:1/8
K:D
|: A | A2c c2e | afg afg | A2c c2e | gef g2f | fed cBA | BAG FED | CDE A,B,C | D2 D D2 :|
"variation"
|: A | A2c c2e | afg afg | A2c c2e | gef g2f | fed cBA | BAG FED | cde ABc | d2d d2 :|

